(G-CODE GENERATED BY FLATCAM v8.993 - www.flatcam.org - Version Date: 2020/06/05)
(G-CODE GENERATED BY FLATCAM v8.993 - www.flatcam.org - Version Date: 2020/06/05)
(G-CODE GENERATED BY FLATCAM v8.993 - www.flatcam.org - Version Date: 2020/06/05)
(G-CODE GENERATED BY FLATCAM v8.993 - www.flatcam.org - Version Date: 2020/06/05)
(G-CODE GENERATED BY FLATCAM v8.993 - www.flatcam.org - Version Date: 2020/06/05)





(Name: Gerber_BoardOutline.GKO_cutout_cnc)
(Name: Gerber_BoardOutline.GKO_cutout_cnc)
(Name: Gerber_BoardOutline.GKO_cutout_cnc)
(Name: Gerber_BoardOutline.GKO_cutout_cnc)
(Name: Gerber_BoardOutline.GKO_cutout_cnc)
(Type: G-code from Geometry)
(Type: G-code from Geometry)
(Type: G-code from Geometry)
(Type: G-code from Geometry)
(Type: G-code from Geometry)
(Units: MM)
(Units: MM)
(Units: MM)
(Units: MM)
(Units: MM)





(Created on Thursday, 06 May 2021 at 21:45)
(Created on Thursday, 06 May 2021 at 21:45)
(Created on Thursday, 06 May 2021 at 21:45)
(Created on Thursday, 06 May 2021 at 21:45)
(Created on Thursday, 06 May 2021 at 21:45)





(This preprocessor is the default preprocessor used by FlatCAM.)
(This preprocessor is the default preprocessor used by FlatCAM.)
(This preprocessor is the default preprocessor used by FlatCAM.)
(This preprocessor is the default preprocessor used by FlatCAM.)
(This preprocessor is the default preprocessor used by FlatCAM.)
(It is made to work with MACH3 compatible motion controllers.)
(It is made to work with MACH3 compatible motion controllers.)
(It is made to work with MACH3 compatible motion controllers.)
(It is made to work with MACH3 compatible motion controllers.)
(It is made to work with MACH3 compatible motion controllers.)





(TOOL DIAMETER: 2.0 mm)
(TOOL DIAMETER: 2.0 mm)
(TOOL DIAMETER: 2.0 mm)
(TOOL DIAMETER: 2.0 mm)
(TOOL DIAMETER: 2.0 mm)
(Feedrate_XY: 80.0 mm/min)
(Feedrate_XY: 80.0 mm/min)
(Feedrate_XY: 80.0 mm/min)
(Feedrate_XY: 80.0 mm/min)
(Feedrate_XY: 80.0 mm/min)
(Feedrate_Z: 60.0 mm/min)
(Feedrate_Z: 60.0 mm/min)
(Feedrate_Z: 60.0 mm/min)
(Feedrate_Z: 60.0 mm/min)
(Feedrate_Z: 60.0 mm/min)
(Feedrate rapids 1500.0 mm/min)
(Feedrate rapids 1500.0 mm/min)
(Feedrate rapids 1500.0 mm/min)
(Feedrate rapids 1500.0 mm/min)
(Feedrate rapids 1500.0 mm/min)





(Z_Cut: -2.0 mm)
(Z_Cut: -2.0 mm)
(Z_Cut: -2.0 mm)
(Z_Cut: -2.0 mm)
(Z_Cut: -2.0 mm)
(DepthPerCut: 0.7 mm <=>3 passes)
(DepthPerCut: 0.7 mm <=>3 passes)
(DepthPerCut: 0.7 mm <=>3 passes)
(DepthPerCut: 0.7 mm <=>3 passes)
(DepthPerCut: 0.7 mm <=>3 passes)
(Z_Move: 2.0 mm)
(Z_Move: 2.0 mm)
(Z_Move: 2.0 mm)
(Z_Move: 2.0 mm)
(Z_Move: 2.0 mm)
(Z Start: None mm)
(Z Start: None mm)
(Z Start: None mm)
(Z Start: None mm)
(Z Start: None mm)
(Z End: 15.0 mm)
(Z End: 15.0 mm)
(Z End: 15.0 mm)
(Z End: 15.0 mm)
(Z End: 15.0 mm)
(Steps per circle: 64)
(Steps per circle: 64)
(Steps per circle: 64)
(Steps per circle: 64)
(Steps per circle: 64)
(Preprocessor Geometry: default)
(Preprocessor Geometry: default)
(Preprocessor Geometry: default)
(Preprocessor Geometry: default)
(Preprocessor Geometry: default)





(X range:   -1.0636 ...   55.6736  mm)
(X range:   -1.0636 ...   55.6736  mm)
(X range:   -1.0636 ...   55.6736  mm)
(X range:   -1.0636 ...   55.6736  mm)
(X range:   -1.0636 ...   55.6736  mm)
(Y range:   -1.1271 ...   44.9421  mm)
(Y range:   -1.1271 ...   44.9421  mm)
(Y range:   -1.1271 ...   44.9421  mm)
(Y range:   -1.1271 ...   44.9421  mm)
(Y range:   -1.1271 ...   44.9421  mm)





(Spindle Speed: None RPM)
(Spindle Speed: None RPM)
(Spindle Speed: None RPM)
(Spindle Speed: None RPM)
(Spindle Speed: None RPM)
G21
G21
G21
G21
G21
G90
G90
G90
G90
G90
G94
G94
G94
G94
G94















G01 F80.00
G01 F80.00
G01 F80.00
G01 F80.00
G01 F80.00
G00 Z2.0000
G00 Z2.0000
G00 Z2.0000
G00 Z2.0000
G00 Z2.0000





M03
M03
M03
M03
M03
G00 X-1.0636 Y20.5075
G00 X-1.0636 Y20.5075
G00 X-1.0636 Y20.5075
G00 X-1.0636 Y20.5075
G00 X-1.0636 Y20.5075
G01 F60.00
G01 F60.00
G01 F60.00
G01 F60.00
G01 F60.00
G01 Z-0.7000
G01 Z-0.7000
G01 Z-0.7000
G01 Z-0.7000
G01 Z-0.7000
G01 F80.00
G01 F80.00
G01 F80.00
G01 F80.00
G01 F80.00
G01 X-1.0636 Y-0.1271
G01 X-1.0636 Y-0.1271
G01 X-1.0636 Y-0.1271
G01 X-1.0636 Y-0.1271
G01 X-1.0636 Y-0.1271
G01 X-1.0587 Y-0.2251
G01 X-1.0587 Y-0.2251
G01 X-1.0587 Y-0.2251
G01 X-1.0587 Y-0.2251
G01 X-1.0587 Y-0.2251
G01 X-1.0443 Y-0.3222
G01 X-1.0443 Y-0.3222
G01 X-1.0443 Y-0.3222
G01 X-1.0443 Y-0.3222
G01 X-1.0443 Y-0.3222
G01 X-1.0205 Y-0.4173
G01 X-1.0205 Y-0.4173
G01 X-1.0205 Y-0.4173
G01 X-1.0205 Y-0.4173
G01 X-1.0205 Y-0.4173
G01 X-0.9874 Y-0.5097
G01 X-0.9874 Y-0.5097
G01 X-0.9874 Y-0.5097
G01 X-0.9874 Y-0.5097
G01 X-0.9874 Y-0.5097
G01 X-0.9455 Y-0.5985
G01 X-0.9455 Y-0.5985
G01 X-0.9455 Y-0.5985
G01 X-0.9455 Y-0.5985
G01 X-0.9455 Y-0.5985
G01 X-0.8950 Y-0.6826
G01 X-0.8950 Y-0.6826
G01 X-0.8950 Y-0.6826
G01 X-0.8950 Y-0.6826
G01 X-0.8950 Y-0.6826
G01 X-0.8366 Y-0.7615
G01 X-0.8366 Y-0.7615
G01 X-0.8366 Y-0.7615
G01 X-0.8366 Y-0.7615
G01 X-0.8366 Y-0.7615
G01 X-0.7707 Y-0.8342
G01 X-0.7707 Y-0.8342
G01 X-0.7707 Y-0.8342
G01 X-0.7707 Y-0.8342
G01 X-0.7707 Y-0.8342
G01 X-0.6980 Y-0.9001
G01 X-0.6980 Y-0.9001
G01 X-0.6980 Y-0.9001
G01 X-0.6980 Y-0.9001
G01 X-0.6980 Y-0.9001
G01 X-0.6191 Y-0.9585
G01 X-0.6191 Y-0.9585
G01 X-0.6191 Y-0.9585
G01 X-0.6191 Y-0.9585
G01 X-0.6191 Y-0.9585
G01 X-0.5350 Y-1.0090
G01 X-0.5350 Y-1.0090
G01 X-0.5350 Y-1.0090
G01 X-0.5350 Y-1.0090
G01 X-0.5350 Y-1.0090
G01 X-0.4462 Y-1.0509
G01 X-0.4462 Y-1.0509
G01 X-0.4462 Y-1.0509
G01 X-0.4462 Y-1.0509
G01 X-0.4462 Y-1.0509
G01 X-0.3538 Y-1.0840
G01 X-0.3538 Y-1.0840
G01 X-0.3538 Y-1.0840
G01 X-0.3538 Y-1.0840
G01 X-0.3538 Y-1.0840
G01 X-0.2587 Y-1.1078
G01 X-0.2587 Y-1.1078
G01 X-0.2587 Y-1.1078
G01 X-0.2587 Y-1.1078
G01 X-0.2587 Y-1.1078
G01 X-0.1616 Y-1.1222
G01 X-0.1616 Y-1.1222
G01 X-0.1616 Y-1.1222
G01 X-0.1616 Y-1.1222
G01 X-0.1616 Y-1.1222
G01 X-0.0636 Y-1.1271
G01 X-0.0636 Y-1.1271
G01 X-0.0636 Y-1.1271
G01 X-0.0636 Y-1.1271
G01 X-0.0636 Y-1.1271
G01 X25.9050 Y-1.1271
G01 X25.9050 Y-1.1271
G01 X25.9050 Y-1.1271
G01 X25.9050 Y-1.1271
G01 X25.9050 Y-1.1271
G00 X25.9050 Y-1.1271
G00 X25.9050 Y-1.1271
G00 X25.9050 Y-1.1271
G00 X25.9050 Y-1.1271
G00 X25.9050 Y-1.1271
G01 F60.00
G01 F60.00
G01 F60.00
G01 F60.00
G01 F60.00
G01 Z-1.4000
G01 Z-1.4000
G01 Z-1.4000
G01 Z-1.4000
G01 Z-1.4000
G01 F80.00
G01 F80.00
G01 F80.00
G01 F80.00
G01 F80.00
G01 X-0.0636 Y-1.1271
G01 X-0.0636 Y-1.1271
G01 X-0.0636 Y-1.1271
G01 X-0.0636 Y-1.1271
G01 X-0.0636 Y-1.1271
G01 X-0.1616 Y-1.1222
G01 X-0.1616 Y-1.1222
G01 X-0.1616 Y-1.1222
G01 X-0.1616 Y-1.1222
G01 X-0.1616 Y-1.1222
G01 X-0.2587 Y-1.1078
G01 X-0.2587 Y-1.1078
G01 X-0.2587 Y-1.1078
G01 X-0.2587 Y-1.1078
G01 X-0.2587 Y-1.1078
G01 X-0.3538 Y-1.0840
G01 X-0.3538 Y-1.0840
G01 X-0.3538 Y-1.0840
G01 X-0.3538 Y-1.0840
G01 X-0.3538 Y-1.0840
G01 X-0.4462 Y-1.0509
G01 X-0.4462 Y-1.0509
G01 X-0.4462 Y-1.0509
G01 X-0.4462 Y-1.0509
G01 X-0.4462 Y-1.0509
G01 X-0.5350 Y-1.0090
G01 X-0.5350 Y-1.0090
G01 X-0.5350 Y-1.0090
G01 X-0.5350 Y-1.0090
G01 X-0.5350 Y-1.0090
G01 X-0.6191 Y-0.9585
G01 X-0.6191 Y-0.9585
G01 X-0.6191 Y-0.9585
G01 X-0.6191 Y-0.9585
G01 X-0.6191 Y-0.9585
G01 X-0.6980 Y-0.9001
G01 X-0.6980 Y-0.9001
G01 X-0.6980 Y-0.9001
G01 X-0.6980 Y-0.9001
G01 X-0.6980 Y-0.9001
G01 X-0.7707 Y-0.8342
G01 X-0.7707 Y-0.8342
G01 X-0.7707 Y-0.8342
G01 X-0.7707 Y-0.8342
G01 X-0.7707 Y-0.8342
G01 X-0.8366 Y-0.7615
G01 X-0.8366 Y-0.7615
G01 X-0.8366 Y-0.7615
G01 X-0.8366 Y-0.7615
G01 X-0.8366 Y-0.7615
G01 X-0.8950 Y-0.6826
G01 X-0.8950 Y-0.6826
G01 X-0.8950 Y-0.6826
G01 X-0.8950 Y-0.6826
G01 X-0.8950 Y-0.6826
G01 X-0.9455 Y-0.5985
G01 X-0.9455 Y-0.5985
G01 X-0.9455 Y-0.5985
G01 X-0.9455 Y-0.5985
G01 X-0.9455 Y-0.5985
G01 X-0.9874 Y-0.5097
G01 X-0.9874 Y-0.5097
G01 X-0.9874 Y-0.5097
G01 X-0.9874 Y-0.5097
G01 X-0.9874 Y-0.5097
G01 X-1.0205 Y-0.4173
G01 X-1.0205 Y-0.4173
G01 X-1.0205 Y-0.4173
G01 X-1.0205 Y-0.4173
G01 X-1.0205 Y-0.4173
G01 X-1.0443 Y-0.3222
G01 X-1.0443 Y-0.3222
G01 X-1.0443 Y-0.3222
G01 X-1.0443 Y-0.3222
G01 X-1.0443 Y-0.3222
G01 X-1.0587 Y-0.2251
G01 X-1.0587 Y-0.2251
G01 X-1.0587 Y-0.2251
G01 X-1.0587 Y-0.2251
G01 X-1.0587 Y-0.2251
G01 X-1.0636 Y-0.1271
G01 X-1.0636 Y-0.1271
G01 X-1.0636 Y-0.1271
G01 X-1.0636 Y-0.1271
G01 X-1.0636 Y-0.1271
G01 X-1.0636 Y20.5075
G01 X-1.0636 Y20.5075
G01 X-1.0636 Y20.5075
G01 X-1.0636 Y20.5075
G01 X-1.0636 Y20.5075
G00 X-1.0636 Y20.5075
G00 X-1.0636 Y20.5075
G00 X-1.0636 Y20.5075
G00 X-1.0636 Y20.5075
G00 X-1.0636 Y20.5075
G01 F60.00
G01 F60.00
G01 F60.00
G01 F60.00
G01 F60.00
G01 Z-2.0000
G01 Z-2.0000
G01 Z-2.0000
G01 Z-2.0000
G01 Z-2.0000
G01 F80.00
G01 F80.00
G01 F80.00
G01 F80.00
G01 F80.00
G01 X-1.0636 Y-0.1271
G01 X-1.0636 Y-0.1271
G01 X-1.0636 Y-0.1271
G01 X-1.0636 Y-0.1271
G01 X-1.0636 Y-0.1271
G01 X-1.0587 Y-0.2251
G01 X-1.0587 Y-0.2251
G01 X-1.0587 Y-0.2251
G01 X-1.0587 Y-0.2251
G01 X-1.0587 Y-0.2251
G01 X-1.0443 Y-0.3222
G01 X-1.0443 Y-0.3222
G01 X-1.0443 Y-0.3222
G01 X-1.0443 Y-0.3222
G01 X-1.0443 Y-0.3222
G01 X-1.0205 Y-0.4173
G01 X-1.0205 Y-0.4173
G01 X-1.0205 Y-0.4173
G01 X-1.0205 Y-0.4173
G01 X-1.0205 Y-0.4173
G01 X-0.9874 Y-0.5097
G01 X-0.9874 Y-0.5097
G01 X-0.9874 Y-0.5097
G01 X-0.9874 Y-0.5097
G01 X-0.9874 Y-0.5097
G01 X-0.9455 Y-0.5985
G01 X-0.9455 Y-0.5985
G01 X-0.9455 Y-0.5985
G01 X-0.9455 Y-0.5985
G01 X-0.9455 Y-0.5985
G01 X-0.8950 Y-0.6826
G01 X-0.8950 Y-0.6826
G01 X-0.8950 Y-0.6826
G01 X-0.8950 Y-0.6826
G01 X-0.8950 Y-0.6826
G01 X-0.8366 Y-0.7615
G01 X-0.8366 Y-0.7615
G01 X-0.8366 Y-0.7615
G01 X-0.8366 Y-0.7615
G01 X-0.8366 Y-0.7615
G01 X-0.7707 Y-0.8342
G01 X-0.7707 Y-0.8342
G01 X-0.7707 Y-0.8342
G01 X-0.7707 Y-0.8342
G01 X-0.7707 Y-0.8342
G01 X-0.6980 Y-0.9001
G01 X-0.6980 Y-0.9001
G01 X-0.6980 Y-0.9001
G01 X-0.6980 Y-0.9001
G01 X-0.6980 Y-0.9001
G01 X-0.6191 Y-0.9585
G01 X-0.6191 Y-0.9585
G01 X-0.6191 Y-0.9585
G01 X-0.6191 Y-0.9585
G01 X-0.6191 Y-0.9585
G01 X-0.5350 Y-1.0090
G01 X-0.5350 Y-1.0090
G01 X-0.5350 Y-1.0090
G01 X-0.5350 Y-1.0090
G01 X-0.5350 Y-1.0090
G01 X-0.4462 Y-1.0509
G01 X-0.4462 Y-1.0509
G01 X-0.4462 Y-1.0509
G01 X-0.4462 Y-1.0509
G01 X-0.4462 Y-1.0509
G01 X-0.3538 Y-1.0840
G01 X-0.3538 Y-1.0840
G01 X-0.3538 Y-1.0840
G01 X-0.3538 Y-1.0840
G01 X-0.3538 Y-1.0840
G01 X-0.2587 Y-1.1078
G01 X-0.2587 Y-1.1078
G01 X-0.2587 Y-1.1078
G01 X-0.2587 Y-1.1078
G01 X-0.2587 Y-1.1078
G01 X-0.1616 Y-1.1222
G01 X-0.1616 Y-1.1222
G01 X-0.1616 Y-1.1222
G01 X-0.1616 Y-1.1222
G01 X-0.1616 Y-1.1222
G01 X-0.0636 Y-1.1271
G01 X-0.0636 Y-1.1271
G01 X-0.0636 Y-1.1271
G01 X-0.0636 Y-1.1271
G01 X-0.0636 Y-1.1271
G01 X25.9050 Y-1.1271
G01 X25.9050 Y-1.1271
G01 X25.9050 Y-1.1271
G01 X25.9050 Y-1.1271
G01 X25.9050 Y-1.1271
G00 Z2.0000
G00 Z2.0000
G00 Z2.0000
G00 Z2.0000
G00 Z2.0000
G00 X28.7050 Y-1.1271
G00 X28.7050 Y-1.1271
G00 X28.7050 Y-1.1271
G00 X28.7050 Y-1.1271
G00 X28.7050 Y-1.1271
G01 F60.00
G01 F60.00
G01 F60.00
G01 F60.00
G01 F60.00
G01 Z-0.7000
G01 Z-0.7000
G01 Z-0.7000
G01 Z-0.7000
G01 Z-0.7000
G01 F80.00
G01 F80.00
G01 F80.00
G01 F80.00
G01 F80.00
G01 X54.6736 Y-1.1271
G01 X54.6736 Y-1.1271
G01 X54.6736 Y-1.1271
G01 X54.6736 Y-1.1271
G01 X54.6736 Y-1.1271
G00 X54.6736 Y-1.1271
G00 X54.6736 Y-1.1271
G00 X54.6736 Y-1.1271
G00 X54.6736 Y-1.1271
G00 X54.6736 Y-1.1271
G01 F60.00
G01 F60.00
G01 F60.00
G01 F60.00
G01 F60.00
G01 Z-1.4000
G01 Z-1.4000
G01 Z-1.4000
G01 Z-1.4000
G01 Z-1.4000
G01 F80.00
G01 F80.00
G01 F80.00
G01 F80.00
G01 F80.00
G01 X28.7050 Y-1.1271
G01 X28.7050 Y-1.1271
G01 X28.7050 Y-1.1271
G01 X28.7050 Y-1.1271
G01 X28.7050 Y-1.1271
G00 X28.7050 Y-1.1271
G00 X28.7050 Y-1.1271
G00 X28.7050 Y-1.1271
G00 X28.7050 Y-1.1271
G00 X28.7050 Y-1.1271
G01 F60.00
G01 F60.00
G01 F60.00
G01 F60.00
G01 F60.00
G01 Z-2.0000
G01 Z-2.0000
G01 Z-2.0000
G01 Z-2.0000
G01 Z-2.0000
G01 F80.00
G01 F80.00
G01 F80.00
G01 F80.00
G01 F80.00
G01 X54.6736 Y-1.1271
G01 X54.6736 Y-1.1271
G01 X54.6736 Y-1.1271
G01 X54.6736 Y-1.1271
G01 X54.6736 Y-1.1271
G00 Z2.0000
G00 Z2.0000
G00 Z2.0000
G00 Z2.0000
G00 Z2.0000
G00 X54.6736 Y-1.1271
G00 X54.6736 Y-1.1271
G00 X54.6736 Y-1.1271
G00 X54.6736 Y-1.1271
G00 X54.6736 Y-1.1271
G01 F60.00
G01 F60.00
G01 F60.00
G01 F60.00
G01 F60.00
G01 Z-0.7000
G01 Z-0.7000
G01 Z-0.7000
G01 Z-0.7000
G01 Z-0.7000
G01 F80.00
G01 F80.00
G01 F80.00
G01 F80.00
G01 F80.00
G01 X54.7716 Y-1.1222
G01 X54.7716 Y-1.1222
G01 X54.7716 Y-1.1222
G01 X54.7716 Y-1.1222
G01 X54.7716 Y-1.1222
G01 X54.8687 Y-1.1078
G01 X54.8687 Y-1.1078
G01 X54.8687 Y-1.1078
G01 X54.8687 Y-1.1078
G01 X54.8687 Y-1.1078
G01 X54.9638 Y-1.0840
G01 X54.9638 Y-1.0840
G01 X54.9638 Y-1.0840
G01 X54.9638 Y-1.0840
G01 X54.9638 Y-1.0840
G01 X55.0562 Y-1.0509
G01 X55.0562 Y-1.0509
G01 X55.0562 Y-1.0509
G01 X55.0562 Y-1.0509
G01 X55.0562 Y-1.0509
G01 X55.1450 Y-1.0090
G01 X55.1450 Y-1.0090
G01 X55.1450 Y-1.0090
G01 X55.1450 Y-1.0090
G01 X55.1450 Y-1.0090
G01 X55.2291 Y-0.9585
G01 X55.2291 Y-0.9585
G01 X55.2291 Y-0.9585
G01 X55.2291 Y-0.9585
G01 X55.2291 Y-0.9585
G01 X55.3080 Y-0.9001
G01 X55.3080 Y-0.9001
G01 X55.3080 Y-0.9001
G01 X55.3080 Y-0.9001
G01 X55.3080 Y-0.9001
G01 X55.3807 Y-0.8342
G01 X55.3807 Y-0.8342
G01 X55.3807 Y-0.8342
G01 X55.3807 Y-0.8342
G01 X55.3807 Y-0.8342
G01 X55.4466 Y-0.7615
G01 X55.4466 Y-0.7615
G01 X55.4466 Y-0.7615
G01 X55.4466 Y-0.7615
G01 X55.4466 Y-0.7615
G01 X55.5050 Y-0.6826
G01 X55.5050 Y-0.6826
G01 X55.5050 Y-0.6826
G01 X55.5050 Y-0.6826
G01 X55.5050 Y-0.6826
G01 X55.5555 Y-0.5985
G01 X55.5555 Y-0.5985
G01 X55.5555 Y-0.5985
G01 X55.5555 Y-0.5985
G01 X55.5555 Y-0.5985
G01 X55.5974 Y-0.5097
G01 X55.5974 Y-0.5097
G01 X55.5974 Y-0.5097
G01 X55.5974 Y-0.5097
G01 X55.5974 Y-0.5097
G01 X55.6305 Y-0.4173
G01 X55.6305 Y-0.4173
G01 X55.6305 Y-0.4173
G01 X55.6305 Y-0.4173
G01 X55.6305 Y-0.4173
G01 X55.6543 Y-0.3222
G01 X55.6543 Y-0.3222
G01 X55.6543 Y-0.3222
G01 X55.6543 Y-0.3222
G01 X55.6543 Y-0.3222
G01 X55.6687 Y-0.2251
G01 X55.6687 Y-0.2251
G01 X55.6687 Y-0.2251
G01 X55.6687 Y-0.2251
G01 X55.6687 Y-0.2251
G01 X55.6736 Y-0.1271
G01 X55.6736 Y-0.1271
G01 X55.6736 Y-0.1271
G01 X55.6736 Y-0.1271
G01 X55.6736 Y-0.1271
G01 X55.6736 Y20.5075
G01 X55.6736 Y20.5075
G01 X55.6736 Y20.5075
G01 X55.6736 Y20.5075
G01 X55.6736 Y20.5075
G00 X55.6736 Y20.5075
G00 X55.6736 Y20.5075
G00 X55.6736 Y20.5075
G00 X55.6736 Y20.5075
G00 X55.6736 Y20.5075
G01 F60.00
G01 F60.00
G01 F60.00
G01 F60.00
G01 F60.00
G01 Z-1.4000
G01 Z-1.4000
G01 Z-1.4000
G01 Z-1.4000
G01 Z-1.4000
G01 F80.00
G01 F80.00
G01 F80.00
G01 F80.00
G01 F80.00
G01 X55.6736 Y-0.1271
G01 X55.6736 Y-0.1271
G01 X55.6736 Y-0.1271
G01 X55.6736 Y-0.1271
G01 X55.6736 Y-0.1271
G01 X55.6687 Y-0.2251
G01 X55.6687 Y-0.2251
G01 X55.6687 Y-0.2251
G01 X55.6687 Y-0.2251
G01 X55.6687 Y-0.2251
G01 X55.6543 Y-0.3222
G01 X55.6543 Y-0.3222
G01 X55.6543 Y-0.3222
G01 X55.6543 Y-0.3222
G01 X55.6543 Y-0.3222
G01 X55.6305 Y-0.4173
G01 X55.6305 Y-0.4173
G01 X55.6305 Y-0.4173
G01 X55.6305 Y-0.4173
G01 X55.6305 Y-0.4173
G01 X55.5974 Y-0.5097
G01 X55.5974 Y-0.5097
G01 X55.5974 Y-0.5097
G01 X55.5974 Y-0.5097
G01 X55.5974 Y-0.5097
G01 X55.5555 Y-0.5985
G01 X55.5555 Y-0.5985
G01 X55.5555 Y-0.5985
G01 X55.5555 Y-0.5985
G01 X55.5555 Y-0.5985
G01 X55.5050 Y-0.6826
G01 X55.5050 Y-0.6826
G01 X55.5050 Y-0.6826
G01 X55.5050 Y-0.6826
G01 X55.5050 Y-0.6826
G01 X55.4466 Y-0.7615
G01 X55.4466 Y-0.7615
G01 X55.4466 Y-0.7615
G01 X55.4466 Y-0.7615
G01 X55.4466 Y-0.7615
G01 X55.3807 Y-0.8342
G01 X55.3807 Y-0.8342
G01 X55.3807 Y-0.8342
G01 X55.3807 Y-0.8342
G01 X55.3807 Y-0.8342
G01 X55.3080 Y-0.9001
G01 X55.3080 Y-0.9001
G01 X55.3080 Y-0.9001
G01 X55.3080 Y-0.9001
G01 X55.3080 Y-0.9001
G01 X55.2291 Y-0.9585
G01 X55.2291 Y-0.9585
G01 X55.2291 Y-0.9585
G01 X55.2291 Y-0.9585
G01 X55.2291 Y-0.9585
G01 X55.1450 Y-1.0090
G01 X55.1450 Y-1.0090
G01 X55.1450 Y-1.0090
G01 X55.1450 Y-1.0090
G01 X55.1450 Y-1.0090
G01 X55.0562 Y-1.0509
G01 X55.0562 Y-1.0509
G01 X55.0562 Y-1.0509
G01 X55.0562 Y-1.0509
G01 X55.0562 Y-1.0509
G01 X54.9638 Y-1.0840
G01 X54.9638 Y-1.0840
G01 X54.9638 Y-1.0840
G01 X54.9638 Y-1.0840
G01 X54.9638 Y-1.0840
G01 X54.8687 Y-1.1078
G01 X54.8687 Y-1.1078
G01 X54.8687 Y-1.1078
G01 X54.8687 Y-1.1078
G01 X54.8687 Y-1.1078
