(G-CODE GENERATED BY FLATCAM v8.993 - www.flatcam.org - Version Date: 2020/06/05)

(Name: Gerber_Drill_NPTH.DRL_mill_cnc)
(Type: G-code from Geometry)
(Units: MM)

(Created on Thursday, 06 May 2021 at 21:28)

(This preprocessor is the default preprocessor used by FlatCAM.)
(It is made to work with MACH3 compatible motion controllers.)

(TOOL DIAMETER: 2.0 mm)
(Feedrate_XY: 50.0 mm/min)
(Feedrate_Z: 50.0 mm/min)
(Feedrate rapids 1500.0 mm/min)

(Z_Cut: -2.0 mm)
(DepthPerCut: 0.7 mm <=>3 passes)
(Z_Move: 2.0 mm)
(Z Start: None mm)
(Z End: 15.0 mm)
(Steps per circle: 64)
(Preprocessor Geometry: default)

(X range:    4.1100 ...   51.6100  mm)
(Y range:    3.0000 ...   40.5000  mm)

(Spindle Speed: None RPM)
G21
G90
G94



G01 F50.00
G00 Z2.0000

M03
G00 X5.1100 Y3.5000
G01 F50.00
G01 Z-0.7000
G01 F50.00
G01 X5.1076 Y3.4510
G01 X5.1004 Y3.4025
G01 X5.0885 Y3.3549
G01 X5.0719 Y3.3087
G01 X5.0510 Y3.2643
G01 X5.0257 Y3.2222
G01 X4.9965 Y3.1828
G01 X4.9636 Y3.1464
G01 X4.9272 Y3.1135
G01 X4.8878 Y3.0843
G01 X4.8457 Y3.0590
G01 X4.8013 Y3.0381
G01 X4.7551 Y3.0215
G01 X4.7075 Y3.0096
G01 X4.6590 Y3.0024
G01 X4.6100 Y3.0000
G01 X4.5610 Y3.0024
G01 X4.5125 Y3.0096
G01 X4.4649 Y3.0215
G01 X4.4187 Y3.0381
G01 X4.3743 Y3.0590
G01 X4.3322 Y3.0843
G01 X4.2928 Y3.1135
G01 X4.2564 Y3.1464
G01 X4.2235 Y3.1828
G01 X4.1943 Y3.2222
G01 X4.1690 Y3.2643
G01 X4.1481 Y3.3087
G01 X4.1315 Y3.3549
G01 X4.1196 Y3.4025
G01 X4.1124 Y3.4510
G01 X4.1100 Y3.5000
G01 X4.1124 Y3.5490
G01 X4.1196 Y3.5975
G01 X4.1315 Y3.6451
G01 X4.1481 Y3.6913
G01 X4.1690 Y3.7357
G01 X4.1943 Y3.7778
G01 X4.2235 Y3.8172
G01 X4.2564 Y3.8536
G01 X4.2928 Y3.8865
G01 X4.3322 Y3.9157
G01 X4.3743 Y3.9410
G01 X4.4187 Y3.9619
G01 X4.4649 Y3.9785
G01 X4.5125 Y3.9904
G01 X4.5610 Y3.9976
G01 X4.6100 Y4.0000
G01 X4.6590 Y3.9976
G01 X4.7075 Y3.9904
G01 X4.7551 Y3.9785
G01 X4.8013 Y3.9619
G01 X4.8457 Y3.9410
G01 X4.8878 Y3.9157
G01 X4.9272 Y3.8865
G01 X4.9636 Y3.8536
G01 X4.9965 Y3.8172
G01 X5.0257 Y3.7778
G01 X5.0510 Y3.7357
G01 X5.0719 Y3.6913
G01 X5.0885 Y3.6451
G01 X5.1004 Y3.5975
G01 X5.1076 Y3.5490
G01 X5.1100 Y3.5000
G00 X5.1100 Y3.5000
G01 F50.00
G01 Z-1.4000
G01 F50.00
G01 X5.1076 Y3.4510
G01 X5.1004 Y3.4025
G01 X5.0885 Y3.3549
G01 X5.0719 Y3.3087
G01 X5.0510 Y3.2643
G01 X5.0257 Y3.2222
G01 X4.9965 Y3.1828
G01 X4.9636 Y3.1464
G01 X4.9272 Y3.1135
G01 X4.8878 Y3.0843
G01 X4.8457 Y3.0590
G01 X4.8013 Y3.0381
G01 X4.7551 Y3.0215
G01 X4.7075 Y3.0096
G01 X4.6590 Y3.0024
G01 X4.6100 Y3.0000
G01 X4.5610 Y3.0024
G01 X4.5125 Y3.0096
G01 X4.4649 Y3.0215
G01 X4.4187 Y3.0381
G01 X4.3743 Y3.0590
G01 X4.3322 Y3.0843
G01 X4.2928 Y3.1135
G01 X4.2564 Y3.1464
G01 X4.2235 Y3.1828
G01 X4.1943 Y3.2222
G01 X4.1690 Y3.2643
G01 X4.1481 Y3.3087
G01 X4.1315 Y3.3549
G01 X4.1196 Y3.4025
G01 X4.1124 Y3.4510
G01 X4.1100 Y3.5000
G01 X4.1124 Y3.5490
G01 X4.1196 Y3.5975
G01 X4.1315 Y3.6451
G01 X4.1481 Y3.6913
G01 X4.1690 Y3.7357
G01 X4.1943 Y3.7778
G01 X4.2235 Y3.8172
G01 X4.2564 Y3.8536
G01 X4.2928 Y3.8865
G01 X4.3322 Y3.9157
G01 X4.3743 Y3.9410
G01 X4.4187 Y3.9619
G01 X4.4649 Y3.9785
G01 X4.5125 Y3.9904
G01 X4.5610 Y3.9976
G01 X4.6100 Y4.0000
G01 X4.6590 Y3.9976
G01 X4.7075 Y3.9904
G01 X4.7551 Y3.9785
G01 X4.8013 Y3.9619
G01 X4.8457 Y3.9410
G01 X4.8878 Y3.9157
G01 X4.9272 Y3.8865
G01 X4.9636 Y3.8536
G01 X4.9965 Y3.8172
G01 X5.0257 Y3.7778
G01 X5.0510 Y3.7357
G01 X5.0719 Y3.6913
G01 X5.0885 Y3.6451
G01 X5.1004 Y3.5975
G01 X5.1076 Y3.5490
G01 X5.1100 Y3.5000
G00 X5.1100 Y3.5000
G01 F50.00
G01 Z-2.0000
G01 F50.00
G01 X5.1076 Y3.4510
G01 X5.1004 Y3.4025
G01 X5.0885 Y3.3549
G01 X5.0719 Y3.3087
G01 X5.0510 Y3.2643
G01 X5.0257 Y3.2222
G01 X4.9965 Y3.1828
G01 X4.9636 Y3.1464
G01 X4.9272 Y3.1135
G01 X4.8878 Y3.0843
G01 X4.8457 Y3.0590
G01 X4.8013 Y3.0381
G01 X4.7551 Y3.0215
G01 X4.7075 Y3.0096
G01 X4.6590 Y3.0024
G01 X4.6100 Y3.0000
G01 X4.5610 Y3.0024
G01 X4.5125 Y3.0096
G01 X4.4649 Y3.0215
G01 X4.4187 Y3.0381
G01 X4.3743 Y3.0590
G01 X4.3322 Y3.0843
G01 X4.2928 Y3.1135
G01 X4.2564 Y3.1464
G01 X4.2235 Y3.1828
G01 X4.1943 Y3.2222
G01 X4.1690 Y3.2643
G01 X4.1481 Y3.3087
G01 X4.1315 Y3.3549
G01 X4.1196 Y3.4025
G01 X4.1124 Y3.4510
G01 X4.1100 Y3.5000
G01 X4.1124 Y3.5490
G01 X4.1196 Y3.5975
G01 X4.1315 Y3.6451
G01 X4.1481 Y3.6913
G01 X4.1690 Y3.7357
G01 X4.1943 Y3.7778
G01 X4.2235 Y3.8172
G01 X4.2564 Y3.8536
G01 X4.2928 Y3.8865
G01 X4.3322 Y3.9157
G01 X4.3743 Y3.9410
G01 X4.4187 Y3.9619
G01 X4.4649 Y3.9785
G01 X4.5125 Y3.9904
G01 X4.5610 Y3.9976
G01 X4.6100 Y4.0000
G01 X4.6590 Y3.9976
G01 X4.7075 Y3.9904
G01 X4.7551 Y3.9785
G01 X4.8013 Y3.9619
G01 X4.8457 Y3.9410
G01 X4.8878 Y3.9157
G01 X4.9272 Y3.8865
G01 X4.9636 Y3.8536
G01 X4.9965 Y3.8172
G01 X5.0257 Y3.7778
G01 X5.0510 Y3.7357
G01 X5.0719 Y3.6913
G01 X5.0885 Y3.6451
G01 X5.1004 Y3.5975
G01 X5.1076 Y3.5490
G01 X5.1100 Y3.5000
G00 Z2.0000
G00 X5.1100 Y40.0000
G01 F50.00
G01 Z-0.7000
G01 F50.00
G01 X5.1076 Y39.9510
G01 X5.1004 Y39.9025
G01 X5.0885 Y39.8549
G01 X5.0719 Y39.8087
G01 X5.0510 Y39.7643
G01 X5.0257 Y39.7222
G01 X4.9965 Y39.6828
G01 X4.9636 Y39.6464
G01 X4.9272 Y39.6135
G01 X4.8878 Y39.5843
G01 X4.8457 Y39.5590
G01 X4.8013 Y39.5381
G01 X4.7551 Y39.5215
G01 X4.7075 Y39.5096
G01 X4.6590 Y39.5024
G01 X4.6100 Y39.5000
G01 X4.5610 Y39.5024
G01 X4.5125 Y39.5096
G01 X4.4649 Y39.5215
G01 X4.4187 Y39.5381
G01 X4.3743 Y39.5590
G01 X4.3322 Y39.5843
G01 X4.2928 Y39.6135
G01 X4.2564 Y39.6464
G01 X4.2235 Y39.6828
G01 X4.1943 Y39.7222
G01 X4.1690 Y39.7643
G01 X4.1481 Y39.8087
G01 X4.1315 Y39.8549
G01 X4.1196 Y39.9025
G01 X4.1124 Y39.9510
G01 X4.1100 Y40.0000
G01 X4.1124 Y40.0490
G01 X4.1196 Y40.0975
G01 X4.1315 Y40.1451
G01 X4.1481 Y40.1913
G01 X4.1690 Y40.2357
G01 X4.1943 Y40.2778
G01 X4.2235 Y40.3172
G01 X4.2564 Y40.3536
G01 X4.2928 Y40.3865
G01 X4.3322 Y40.4157
G01 X4.3743 Y40.4410
G01 X4.4187 Y40.4619
G01 X4.4649 Y40.4785
G01 X4.5125 Y40.4904
G01 X4.5610 Y40.4976
G01 X4.6100 Y40.5000
G01 X4.6590 Y40.4976
G01 X4.7075 Y40.4904
G01 X4.7551 Y40.4785
G01 X4.8013 Y40.4619
G01 X4.8457 Y40.4410
G01 X4.8878 Y40.4157
G01 X4.9272 Y40.3865
G01 X4.9636 Y40.3536
G01 X4.9965 Y40.3172
G01 X5.0257 Y40.2778
G01 X5.0510 Y40.2357
G01 X5.0719 Y40.1913
G01 X5.0885 Y40.1451
G01 X5.1004 Y40.0975
G01 X5.1076 Y40.0490
G01 X5.1100 Y40.0000
G00 X5.1100 Y40.0000
G01 F50.00
G01 Z-1.4000
G01 F50.00
G01 X5.1076 Y39.9510
G01 X5.1004 Y39.9025
G01 X5.0885 Y39.8549
G01 X5.0719 Y39.8087
G01 X5.0510 Y39.7643
G01 X5.0257 Y39.7222
G01 X4.9965 Y39.6828
G01 X4.9636 Y39.6464
G01 X4.9272 Y39.6135
G01 X4.8878 Y39.5843
G01 X4.8457 Y39.5590
G01 X4.8013 Y39.5381
G01 X4.7551 Y39.5215
G01 X4.7075 Y39.5096
G01 X4.6590 Y39.5024
G01 X4.6100 Y39.5000
G01 X4.5610 Y39.5024
G01 X4.5125 Y39.5096
G01 X4.4649 Y39.5215
G01 X4.4187 Y39.5381
G01 X4.3743 Y39.5590
G01 X4.3322 Y39.5843
G01 X4.2928 Y39.6135
G01 X4.2564 Y39.6464
G01 X4.2235 Y39.6828
G01 X4.1943 Y39.7222
G01 X4.1690 Y39.7643
G01 X4.1481 Y39.8087
G01 X4.1315 Y39.8549
G01 X4.1196 Y39.9025
G01 X4.1124 Y39.9510
G01 X4.1100 Y40.0000
G01 X4.1124 Y40.0490
G01 X4.1196 Y40.0975
G01 X4.1315 Y40.1451
G01 X4.1481 Y40.1913
G01 X4.1690 Y40.2357
G01 X4.1943 Y40.2778
G01 X4.2235 Y40.3172
G01 X4.2564 Y40.3536
G01 X4.2928 Y40.3865
G01 X4.3322 Y40.4157
G01 X4.3743 Y40.4410
G01 X4.4187 Y40.4619
G01 X4.4649 Y40.4785
G01 X4.5125 Y40.4904
G01 X4.5610 Y40.4976
G01 X4.6100 Y40.5000
G01 X4.6590 Y40.4976
G01 X4.7075 Y40.4904
G01 X4.7551 Y40.4785
G01 X4.8013 Y40.4619
G01 X4.8457 Y40.4410
G01 X4.8878 Y40.4157
G01 X4.9272 Y40.3865
G01 X4.9636 Y40.3536
G01 X4.9965 Y40.3172
G01 X5.0257 Y40.2778
G01 X5.0510 Y40.2357
G01 X5.0719 Y40.1913
G01 X5.0885 Y40.1451
G01 X5.1004 Y40.0975
G01 X5.1076 Y40.0490
G01 X5.1100 Y40.0000
G00 X5.1100 Y40.0000
G01 F50.00
G01 Z-2.0000
G01 F50.00
G01 X5.1076 Y39.9510
G01 X5.1004 Y39.9025
G01 X5.0885 Y39.8549
G01 X5.0719 Y39.8087
G01 X5.0510 Y39.7643
G01 X5.0257 Y39.7222
G01 X4.9965 Y39.6828
G01 X4.9636 Y39.6464
G01 X4.9272 Y39.6135
G01 X4.8878 Y39.5843
G01 X4.8457 Y39.5590
G01 X4.8013 Y39.5381
G01 X4.7551 Y39.5215
G01 X4.7075 Y39.5096
G01 X4.6590 Y39.5024
G01 X4.6100 Y39.5000
G01 X4.5610 Y39.5024
G01 X4.5125 Y39.5096
G01 X4.4649 Y39.5215
G01 X4.4187 Y39.5381
G01 X4.3743 Y39.5590
G01 X4.3322 Y39.5843
G01 X4.2928 Y39.6135
G01 X4.2564 Y39.6464
G01 X4.2235 Y39.6828
G01 X4.1943 Y39.7222
G01 X4.1690 Y39.7643
G01 X4.1481 Y39.8087
G01 X4.1315 Y39.8549
G01 X4.1196 Y39.9025
G01 X4.1124 Y39.9510
G01 X4.1100 Y40.0000
G01 X4.1124 Y40.0490
G01 X4.1196 Y40.0975
G01 X4.1315 Y40.1451
G01 X4.1481 Y40.1913
G01 X4.1690 Y40.2357
G01 X4.1943 Y40.2778
G01 X4.2235 Y40.3172
G01 X4.2564 Y40.3536
G01 X4.2928 Y40.3865
G01 X4.3322 Y40.4157
G01 X4.3743 Y40.4410
G01 X4.4187 Y40.4619
G01 X4.4649 Y40.4785
G01 X4.5125 Y40.4904
G01 X4.5610 Y40.4976
G01 X4.6100 Y40.5000
G01 X4.6590 Y40.4976
G01 X4.7075 Y40.4904
G01 X4.7551 Y40.4785
G01 X4.8013 Y40.4619
G01 X4.8457 Y40.4410
G01 X4.8878 Y40.4157
G01 X4.9272 Y40.3865
G01 X4.9636 Y40.3536
G01 X4.9965 Y40.3172
G01 X5.0257 Y40.2778
G01 X5.0510 Y40.2357
G01 X5.0719 Y40.1913
G01 X5.0885 Y40.1451
G01 X5.1004 Y40.0975
G01 X5.1076 Y40.0490
G01 X5.1100 Y40.0000
G00 Z2.0000
G00 X51.6100 Y40.0000
G01 F50.00
G01 Z-0.7000
G01 F50.00
G01 X51.6076 Y39.9510
G01 X51.6004 Y39.9025
G01 X51.5885 Y39.8549
G01 X51.5719 Y39.8087
G01 X51.5510 Y39.7643
G01 X51.5257 Y39.7222
G01 X51.4965 Y39.6828
G01 X51.4636 Y39.6464
G01 X51.4272 Y39.6135
G01 X51.3878 Y39.5843
G01 X51.3457 Y39.5590
G01 X51.3013 Y39.5381
G01 X51.2551 Y39.5215
G01 X51.2075 Y39.5096
G01 X51.1590 Y39.5024
G01 X51.1100 Y39.5000
G01 X51.0610 Y39.5024
G01 X51.0125 Y39.5096
G01 X50.9649 Y39.5215
G01 X50.9187 Y39.5381
G01 X50.8743 Y39.5590
G01 X50.8322 Y39.5843
G01 X50.7928 Y39.6135
G01 X50.7564 Y39.6464
G01 X50.7235 Y39.6828
G01 X50.6943 Y39.7222
G01 X50.6690 Y39.7643
G01 X50.6481 Y39.8087
G01 X50.6315 Y39.8549
G01 X50.6196 Y39.9025
G01 X50.6124 Y39.9510
G01 X50.6100 Y40.0000
G01 X50.6124 Y40.0490
G01 X50.6196 Y40.0975
G01 X50.6315 Y40.1451
G01 X50.6481 Y40.1913
G01 X50.6690 Y40.2357
G01 X50.6943 Y40.2778
G01 X50.7235 Y40.3172
G01 X50.7564 Y40.3536
G01 X50.7928 Y40.3865
G01 X50.8322 Y40.4157
G01 X50.8743 Y40.4410
G01 X50.9187 Y40.4619
G01 X50.9649 Y40.4785
G01 X51.0125 Y40.4904
G01 X51.0610 Y40.4976
G01 X51.1100 Y40.5000
G01 X51.1590 Y40.4976
G01 X51.2075 Y40.4904
G01 X51.2551 Y40.4785
G01 X51.3013 Y40.4619
G01 X51.3457 Y40.4410
G01 X51.3878 Y40.4157
G01 X51.4272 Y40.3865
G01 X51.4636 Y40.3536
G01 X51.4965 Y40.3172
G01 X51.5257 Y40.2778
G01 X51.5510 Y40.2357
G01 X51.5719 Y40.1913
G01 X51.5885 Y40.1451
G01 X51.6004 Y40.0975
G01 X51.6076 Y40.0490
G01 X51.6100 Y40.0000
G00 X51.6100 Y40.0000
G01 F50.00
G01 Z-1.4000
G01 F50.00
G01 X51.6076 Y39.9510
G01 X51.6004 Y39.9025
G01 X51.5885 Y39.8549
G01 X51.5719 Y39.8087
G01 X51.5510 Y39.7643
G01 X51.5257 Y39.7222
G01 X51.4965 Y39.6828
G01 X51.4636 Y39.6464
G01 X51.4272 Y39.6135
G01 X51.3878 Y39.5843
G01 X51.3457 Y39.5590
G01 X51.3013 Y39.5381
G01 X51.2551 Y39.5215
G01 X51.2075 Y39.5096
G01 X51.1590 Y39.5024
G01 X51.1100 Y39.5000
G01 X51.0610 Y39.5024
G01 X51.0125 Y39.5096
G01 X50.9649 Y39.5215
G01 X50.9187 Y39.5381
G01 X50.8743 Y39.5590
G01 X50.8322 Y39.5843
G01 X50.7928 Y39.6135
G01 X50.7564 Y39.6464
G01 X50.7235 Y39.6828
G01 X50.6943 Y39.7222
G01 X50.6690 Y39.7643
G01 X50.6481 Y39.8087
G01 X50.6315 Y39.8549
G01 X50.6196 Y39.9025
G01 X50.6124 Y39.9510
G01 X50.6100 Y40.0000
G01 X50.6124 Y40.0490
G01 X50.6196 Y40.0975
G01 X50.6315 Y40.1451
G01 X50.6481 Y40.1913
G01 X50.6690 Y40.2357
G01 X50.6943 Y40.2778
G01 X50.7235 Y40.3172
G01 X50.7564 Y40.3536
G01 X50.7928 Y40.3865
G01 X50.8322 Y40.4157
G01 X50.8743 Y40.4410
G01 X50.9187 Y40.4619
G01 X50.9649 Y40.4785
G01 X51.0125 Y40.4904
G01 X51.0610 Y40.4976
G01 X51.1100 Y40.5000
G01 X51.1590 Y40.4976
G01 X51.2075 Y40.4904
G01 X51.2551 Y40.4785
G01 X51.3013 Y40.4619
G01 X51.3457 Y40.4410
G01 X51.3878 Y40.4157
G01 X51.4272 Y40.3865
G01 X51.4636 Y40.3536
G01 X51.4965 Y40.3172
G01 X51.5257 Y40.2778
G01 X51.5510 Y40.2357
G01 X51.5719 Y40.1913
G01 X51.5885 Y40.1451
G01 X51.6004 Y40.0975
G01 X51.6076 Y40.0490
G01 X51.6100 Y40.0000
G00 X51.6100 Y40.0000
G01 F50.00
G01 Z-2.0000
G01 F50.00
G01 X51.6076 Y39.9510
G01 X51.6004 Y39.9025
G01 X51.5885 Y39.8549
G01 X51.5719 Y39.8087
G01 X51.5510 Y39.7643
G01 X51.5257 Y39.7222
G01 X51.4965 Y39.6828
G01 X51.4636 Y39.6464
G01 X51.4272 Y39.6135
G01 X51.3878 Y39.5843
G01 X51.3457 Y39.5590
G01 X51.3013 Y39.5381
G01 X51.2551 Y39.5215
G01 X51.2075 Y39.5096
G01 X51.1590 Y39.5024
G01 X51.1100 Y39.5000
G01 X51.0610 Y39.5024
G01 X51.0125 Y39.5096
G01 X50.9649 Y39.5215
G01 X50.9187 Y39.5381
G01 X50.8743 Y39.5590
G01 X50.8322 Y39.5843
G01 X50.7928 Y39.6135
G01 X50.7564 Y39.6464
G01 X50.7235 Y39.6828
G01 X50.6943 Y39.7222
G01 X50.6690 Y39.7643
G01 X50.6481 Y39.8087
G01 X50.6315 Y39.8549
G01 X50.6196 Y39.9025
G01 X50.6124 Y39.9510
G01 X50.6100 Y40.0000
G01 X50.6124 Y40.0490
G01 X50.6196 Y40.0975
G01 X50.6315 Y40.1451
G01 X50.6481 Y40.1913
G01 X50.6690 Y40.2357
G01 X50.6943 Y40.2778
G01 X50.7235 Y40.3172
G01 X50.7564 Y40.3536
G01 X50.7928 Y40.3865
G01 X50.8322 Y40.4157
G01 X50.8743 Y40.4410
G01 X50.9187 Y40.4619
G01 X50.9649 Y40.4785
G01 X51.0125 Y40.4904
G01 X51.0610 Y40.4976
G01 X51.1100 Y40.5000
G01 X51.1590 Y40.4976
G01 X51.2075 Y40.4904
G01 X51.2551 Y40.4785
G01 X51.3013 Y40.4619
G01 X51.3457 Y40.4410
G01 X51.3878 Y40.4157
G01 X51.4272 Y40.3865
G01 X51.4636 Y40.3536
G01 X51.4965 Y40.3172
G01 X51.5257 Y40.2778
G01 X51.5510 Y40.2357
G01 X51.5719 Y40.1913
G01 X51.5885 Y40.1451
G01 X51.6004 Y40.0975
G01 X51.6076 Y40.0490
G01 X51.6100 Y40.0000
G00 Z2.0000
G00 X51.6100 Y3.5000
G01 F50.00
G01 Z-0.7000
G01 F50.00
G01 X51.6076 Y3.4510
G01 X51.6004 Y3.4025
G01 X51.5885 Y3.3549
G01 X51.5719 Y3.3087
G01 X51.5510 Y3.2643
G01 X51.5257 Y3.2222
G01 X51.4965 Y3.1828
G01 X51.4636 Y3.1464
G01 X51.4272 Y3.1135
G01 X51.3878 Y3.0843
G01 X51.3457 Y3.0590
G01 X51.3013 Y3.0381
G01 X51.2551 Y3.0215
G01 X51.2075 Y3.0096
G01 X51.1590 Y3.0024
G01 X51.1100 Y3.0000
G01 X51.0610 Y3.0024
G01 X51.0125 Y3.0096
G01 X50.9649 Y3.0215
G01 X50.9187 Y3.0381
G01 X50.8743 Y3.0590
G01 X50.8322 Y3.0843
G01 X50.7928 Y3.1135
G01 X50.7564 Y3.1464
G01 X50.7235 Y3.1828
G01 X50.6943 Y3.2222
G01 X50.6690 Y3.2643
G01 X50.6481 Y3.3087
G01 X50.6315 Y3.3549
G01 X50.6196 Y3.4025
G01 X50.6124 Y3.4510
G01 X50.6100 Y3.5000
G01 X50.6124 Y3.5490
G01 X50.6196 Y3.5975
G01 X50.6315 Y3.6451
G01 X50.6481 Y3.6913
G01 X50.6690 Y3.7357
G01 X50.6943 Y3.7778
G01 X50.7235 Y3.8172
G01 X50.7564 Y3.8536
G01 X50.7928 Y3.8865
G01 X50.8322 Y3.9157
G01 X50.8743 Y3.9410
G01 X50.9187 Y3.9619
G01 X50.9649 Y3.9785
G01 X51.0125 Y3.9904
G01 X51.0610 Y3.9976
G01 X51.1100 Y4.0000
G01 X51.1590 Y3.9976
G01 X51.2075 Y3.9904
G01 X51.2551 Y3.9785
G01 X51.3013 Y3.9619
G01 X51.3457 Y3.9410
G01 X51.3878 Y3.9157
G01 X51.4272 Y3.8865
G01 X51.4636 Y3.8536
G01 X51.4965 Y3.8172
G01 X51.5257 Y3.7778
G01 X51.5510 Y3.7357
G01 X51.5719 Y3.6913
G01 X51.5885 Y3.6451
G01 X51.6004 Y3.5975
G01 X51.6076 Y3.5490
G01 X51.6100 Y3.5000
G00 X51.6100 Y3.5000
G01 F50.00
G01 Z-1.4000
G01 F50.00
G01 X51.6076 Y3.4510
G01 X51.6004 Y3.4025
G01 X51.5885 Y3.3549
G01 X51.5719 Y3.3087
G01 X51.5510 Y3.2643
G01 X51.5257 Y3.2222
G01 X51.4965 Y3.1828
G01 X51.4636 Y3.1464
G01 X51.4272 Y3.1135
G01 X51.3878 Y3.0843
G01 X51.3457 Y3.0590
G01 X51.3013 Y3.0381
G01 X51.2551 Y3.0215
G01 X51.2075 Y3.0096
G01 X51.1590 Y3.0024
G01 X51.1100 Y3.0000
G01 X51.0610 Y3.0024
G01 X51.0125 Y3.0096
G01 X50.9649 Y3.0215
G01 X50.9187 Y3.0381
G01 X50.8743 Y3.0590
G01 X50.8322 Y3.0843
G01 X50.7928 Y3.1135
G01 X50.7564 Y3.1464
G01 X50.7235 Y3.1828
G01 X50.6943 Y3.2222
G01 X50.6690 Y3.2643
G01 X50.6481 Y3.3087
G01 X50.6315 Y3.3549
G01 X50.6196 Y3.4025
G01 X50.6124 Y3.4510
G01 X50.6100 Y3.5000
G01 X50.6124 Y3.5490
G01 X50.6196 Y3.5975
G01 X50.6315 Y3.6451
G01 X50.6481 Y3.6913
G01 X50.6690 Y3.7357
G01 X50.6943 Y3.7778
G01 X50.7235 Y3.8172
G01 X50.7564 Y3.8536
G01 X50.7928 Y3.8865
G01 X50.8322 Y3.9157
G01 X50.8743 Y3.9410
G01 X50.9187 Y3.9619
G01 X50.9649 Y3.9785
G01 X51.0125 Y3.9904
G01 X51.0610 Y3.9976
G01 X51.1100 Y4.0000
G01 X51.1590 Y3.9976
G01 X51.2075 Y3.9904
G01 X51.2551 Y3.9785
G01 X51.3013 Y3.9619
G01 X51.3457 Y3.9410
G01 X51.3878 Y3.9157
