(G-CODE GENERATED BY FLATCAM v8.993 - www.flatcam.org - Version Date: 2020/06/05)

(Name: Gerber_BottomLayer)
(Type: G-code from Geometry)
(Units: MM)

(Created on Friday, 14 May 2021 at 21:57)

(This preprocessor is the default preprocessor used by FlatCAM.)
(It is made to work with MACH3 compatible motion controllers.)

(TOOL DIAMETER: 0.3 mm)
(Feedrate_XY: 120.0 mm/min)
(Feedrate_Z: 60.0 mm/min)
(Feedrate rapids 1500.0 mm/min)

(Z_Cut: -0.15 mm)
(Z_Move: 2.0 mm)
(Z Start: None mm)
(Z End: 15.0 mm)
(Steps per circle: 64)
(Preprocessor Geometry: default)

(X range:    0.6003 ...   52.9783  mm)
(Y range:    0.7062 ...   43.8802  mm)

(Spindle Speed: None RPM)
G21
G90
G94



G01 F120.00
G00 Z2.0000

M03
G00 X7.6174 Y2.1038
G01 F60.00
G01 Z-0.1500
G01 F120.00
G01 X7.6175 Y2.1091
G01 X7.6192 Y2.1188
G01 X7.6207 Y2.1234
G01 X7.6251 Y2.1322
G01 X7.6312 Y2.1399
G01 X7.6386 Y2.1463
G01 X7.6471 Y2.1511
G01 X7.6517 Y2.1529
G01 X7.6612 Y2.1550
G01 X7.6710 Y2.1553
G01 X7.6759 Y2.1547
G01 X7.6853 Y2.1520
G01 X7.6941 Y2.1476
G01 X7.6981 Y2.1448
G01 X7.7018 Y2.1416
G01 X7.7082 Y2.1342
G01 X7.7108 Y2.1300
G01 X7.7147 Y2.1221
G01 X8.0278 Y1.3865
G01 X8.0341 Y1.3735
G01 X8.0396 Y1.3641
G01 X8.0458 Y1.3552
G01 X8.0526 Y1.3468
G01 X8.0600 Y1.3389
G01 X8.0680 Y1.3315
G01 X8.0765 Y1.3247
G01 X8.0855 Y1.3186
G01 X8.0948 Y1.3131
G01 X8.1046 Y1.3083
G01 X8.1113 Y1.3055
G01 X8.1215 Y1.3019
G01 X8.1320 Y1.2991
G01 X8.1427 Y1.2971
G01 X8.1534 Y1.2958
G01 X8.1643 Y1.2953
G01 X8.1751 Y1.2956
G01 X8.1859 Y1.2966
G01 X8.1931 Y1.2978
G01 X8.2002 Y1.2993
G01 X8.2107 Y1.3021
G01 X8.2209 Y1.3058
G01 X8.2276 Y1.3086
G01 X8.2373 Y1.3134
G01 X8.2466 Y1.3189
G01 X8.2556 Y1.3251
G01 X8.2640 Y1.3319
G01 X8.2720 Y1.3393
G01 X8.2770 Y1.3446
G01 X8.2817 Y1.3501
G01 X8.2883 Y1.3587
G01 X8.2942 Y1.3678
G01 X8.2978 Y1.3741
G01 X8.3040 Y1.3871
G01 X8.3079 Y1.3973
G01 X8.5636 Y2.1547
G01 X8.5669 Y2.1629
G01 X8.5692 Y2.1673
G01 X8.5750 Y2.1751
G01 X8.5822 Y2.1817
G01 X8.5906 Y2.1868
G01 X8.5951 Y2.1887
G01 X8.6046 Y2.1911
G01 X8.6144 Y2.1916
G01 X8.6193 Y2.1912
G01 X8.6288 Y2.1888
G01 X8.6333 Y2.1870
G01 X8.6417 Y2.1820
G01 X8.6490 Y2.1754
G01 X8.6549 Y2.1676
G01 X8.6591 Y2.1587
G01 X8.6615 Y2.1492
G01 X8.6623 Y2.1404
G01 X8.6892 Y1.4391
G01 X8.6905 Y1.4243
G01 X8.6933 Y1.4097
G01 X8.6975 Y1.3954
G01 X8.7031 Y1.3817
G01 X8.7064 Y1.3750
G01 X8.7119 Y1.3653
G01 X8.7204 Y1.3531
G01 X8.7251 Y1.3474
G01 X8.7327 Y1.3392
G01 X8.7436 Y1.3292
G01 X8.7569 Y1.3194
G01 X8.7471 Y1.3112
G01 X8.7367 Y1.3007
G01 X8.7273 Y1.2891
G01 X8.7192 Y1.2767
G01 X8.7123 Y1.2635
G01 X8.7068 Y1.2498
G01 X8.7026 Y1.2355
G01 X8.6999 Y1.2209
G01 X8.6988 Y1.2098
G01 X8.6986 Y1.1949
G01 X8.7097 Y0.9074
G01 X8.7096 Y0.8988
G01 X8.7080 Y0.8891
G01 X8.7046 Y0.8799
G01 X8.6995 Y0.8716
G01 X8.6929 Y0.8644
G01 X8.6849 Y0.8587
G01 X8.6761 Y0.8546
G01 X8.6665 Y0.8523
G01 X8.6617 Y0.8519
G01 X8.6519 Y0.8525
G01 X8.6424 Y0.8549
G01 X8.6336 Y0.8592
G01 X8.6296 Y0.8620
G01 X8.6224 Y0.8686
G01 X8.6193 Y0.8724
G01 X8.6144 Y0.8809
G01 X8.6112 Y0.8901
G01 X8.6103 Y0.8950
G01 X8.6095 Y0.9035
G01 X8.6038 Y1.0533
G01 X8.6029 Y1.0644
G01 X8.6019 Y1.0718
G01 X8.5997 Y1.0828
G01 X8.5978 Y1.0899
G01 X8.5942 Y1.1005
G01 X8.5914 Y1.1074
G01 X8.5848 Y1.1207
G01 X8.5810 Y1.1271
G01 X8.5748 Y1.1364
G01 X8.5678 Y1.1451
G01 X8.5629 Y1.1506
G01 X8.5576 Y1.1559
G01 X8.5493 Y1.1633
G01 X8.5373 Y1.1722
G01 X8.5311 Y1.1762
G01 X8.5213 Y1.1816
G01 X8.5111 Y1.1862
G01 X8.5042 Y1.1889
G01 X8.4971 Y1.1912
G01 X8.4863 Y1.1940
G01 X8.4754 Y1.1960
G01 X8.4680 Y1.1969
G01 X8.4606 Y1.1974
G01 X8.4494 Y1.1975
G01 X8.4420 Y1.1971
G01 X8.4309 Y1.1958
G01 X8.4236 Y1.1945
G01 X8.4127 Y1.1918
G01 X8.3986 Y1.1870
G01 X8.3918 Y1.1841
G01 X8.3818 Y1.1791
G01 X8.3691 Y1.1713
G01 X8.3602 Y1.1647
G01 X8.3545 Y1.1599
G01 X8.3464 Y1.1522
G01 X8.3414 Y1.1467
G01 X8.3321 Y1.1351
G01 X8.3279 Y1.1290
G01 X8.3222 Y1.1194
G01 X8.3172 Y1.1094
G01 X8.3130 Y1.0991
G01 X8.2360 Y0.8711
G01 X8.2330 Y0.8634
G01 X8.2309 Y0.8591
G01 X8.2260 Y0.8520
G01 X8.2219 Y0.8475
G01 X8.2152 Y0.8421
G01 X8.2099 Y0.8390
G01 X8.2054 Y0.8370
G01 X8.1972 Y0.8346
G01 X8.1911 Y0.8338
G01 X8.1825 Y0.8339
G01 X8.1765 Y0.8348
G01 X8.1683 Y0.8374
G01 X8.1639 Y0.8395
G01 X8.1587 Y0.8427
G01 X8.1521 Y0.8482
G01 X8.1488 Y0.8519
G01 X8.1452 Y0.8568
G01 X8.1398 Y0.8674
G01 X8.0440 Y1.0921
G01 X8.0368 Y1.1051
G01 X8.0284 Y1.1174
G01 X8.0188 Y1.1288
G01 X8.0109 Y1.1366
G01 X8.0025 Y1.1439
G01 X7.9935 Y1.1505
G01 X7.9840 Y1.1565
G01 X7.9742 Y1.1617
G01 X7.9639 Y1.1662
G01 X7.9534 Y1.1699
G01 X7.9426 Y1.1728
G01 X7.9317 Y1.1748
G01 X7.9206 Y1.1761
G01 X7.9095 Y1.1766
G01 X7.8983 Y1.1762
G01 X7.8872 Y1.1750
G01 X7.8762 Y1.1729
G01 X7.8654 Y1.1701
G01 X7.8549 Y1.1665
G01 X7.8447 Y1.1621
G01 X7.8316 Y1.1550
G01 X7.8192 Y1.1467
G01 X7.8134 Y1.1421
G01 X7.8050 Y1.1347
G01 X7.7948 Y1.1238
G01 X7.7858 Y1.1121
G01 X7.7798 Y1.1027
G01 X7.7761 Y1.0962
G01 X7.7699 Y1.0827
G01 X7.7673 Y1.0757
G01 X7.7640 Y1.0650
G01 X7.7616 Y1.0541
G01 X7.7599 Y1.0431
G01 X7.7593 Y1.0357
G01 X7.7590 Y1.0245
G01 X7.7649 Y0.8711
G01 X7.7648 Y0.8625
G01 X7.7633 Y0.8528
G01 X7.7599 Y0.8436
G01 X7.7547 Y0.8353
G01 X7.7516 Y0.8315
G01 X7.7443 Y0.8250
G01 X7.7358 Y0.8201
G01 X7.7313 Y0.8183
G01 X7.7218 Y0.8160
G01 X7.7120 Y0.8156
G01 X7.7071 Y0.8162
G01 X7.6977 Y0.8186
G01 X7.6889 Y0.8229
G01 X7.6811 Y0.8288
G01 X7.6776 Y0.8323
G01 X7.6719 Y0.8403
G01 X7.6678 Y0.8491
G01 X7.6655 Y0.8587
G01 X7.6648 Y0.8672
G01 X7.6174 Y2.1038
G00 Z2.0000
G00 X8.9308 Y1.3261
G01 F60.00
G01 Z-0.1500
G01 F120.00
G01 X8.9382 Y1.3322
G01 X8.9463 Y1.3399
G01 X8.9514 Y1.3453
G01 X8.9585 Y1.3540
G01 X8.9649 Y1.3631
G01 X8.9688 Y1.3694
G01 X8.9740 Y1.3792
G01 X8.9785 Y1.3894
G01 X8.9832 Y1.4029
G01 X9.0345 Y1.5792
G01 X9.0371 Y1.5868
G01 X9.0413 Y1.5951
G01 X9.0439 Y1.5989
G01 X9.0491 Y1.6051
G01 X9.1576 Y1.7222
G01 X9.1643 Y1.7288
G01 X9.1686 Y1.7320
G01 X9.1765 Y1.7370
G01 X9.2856 Y1.7969
G01 X9.2927 Y1.8004
G01 X9.3020 Y1.8034
G01 X9.3068 Y1.8043
G01 X9.3147 Y1.8049
G01 X9.4847 Y1.8114
G01 X9.4928 Y1.8114
G01 X9.5019 Y1.8100
G01 X9.5064 Y1.8087
G01 X9.5139 Y1.8057
G01 X9.6274 Y1.7543
G01 X9.6358 Y1.7500
G01 X9.6402 Y1.7470
G01 X9.6474 Y1.7410
G01 X9.7645 Y1.6326
G01 X9.7702 Y1.6268
G01 X9.7758 Y1.6194
G01 X9.7780 Y1.6153
G01 X9.7812 Y1.6079
G01 X9.8457 Y1.4365
G01 X9.8499 Y1.4262
G01 X9.8532 Y1.4195
G01 X9.8568 Y1.4130
G01 X9.8628 Y1.4036
G01 X9.8672 Y1.3976
G01 X9.8743 Y1.3890
G01 X9.8820 Y1.3810
G01 X9.8874 Y1.3760
G01 X9.8961 Y1.3689
G01 X9.9038 Y1.3635
G01 X9.8965 Y1.3575
G01 X9.8884 Y1.3498
G01 X9.8834 Y1.3444
G01 X9.8763 Y1.3357
G01 X9.8699 Y1.3266
G01 X9.8642 Y1.3171
G01 X9.8592 Y1.3071
G01 X9.8562 Y1.3003
G01 X9.8516 Y1.2868
G01 X9.8003 Y1.1104
G01 X9.7977 Y1.1027
G01 X9.7935 Y1.0945
G01 X9.7908 Y1.0907
G01 X9.7856 Y1.0845
G01 X9.6771 Y0.9674
G01 X9.6704 Y0.9608
G01 X9.6662 Y0.9575
G01 X9.6582 Y0.9526
G01 X9.5490 Y0.8926
G01 X9.5417 Y0.8891
G01 X9.5329 Y0.8862
G01 X9.5283 Y0.8854
G01 X9.5203 Y0.8847
G01 X9.3501 Y0.8781
G01 X9.3420 Y0.8782
G01 X9.3328 Y0.8796
G01 X9.3284 Y0.8809
G01 X9.3208 Y0.8839
G01 X9.2073 Y0.9353
G01 X9.1990 Y0.9396
G01 X9.1945 Y0.9425
G01 X9.1873 Y0.9485
G01 X9.0702 Y1.0570
G01 X9.0645 Y1.0628
G01 X9.0590 Y1.0702
G01 X9.0568 Y1.0743
G01 X9.0536 Y1.0817
G01 X8.9891 Y1.2530
G01 X8.9848 Y1.2633
G01 X8.9816 Y1.2699
G01 X8.9761 Y1.2796
G01 X8.9720 Y1.2859
G01 X8.9676 Y1.2919
G01 X8.9605 Y1.3005
G01 X8.9528 Y1.3085
G01 X8.9473 Y1.3135
G01 X8.9387 Y1.3206
G01 X8.9308 Y1.3261
G00 Z2.0000
G00 X9.3018 Y1.6913
G01 F60.00
G01 Z-0.1500
G01 F120.00
G01 X9.2427 Y1.6588
G01 X9.2295 Y1.6496
G01 X9.2203 Y1.6418
G01 X9.2118 Y1.6333
G01 X9.1478 Y1.5639
G01 X9.1374 Y1.5500
G01 X9.1286 Y1.5350
G01 X9.1229 Y1.5223
G01 X9.1184 Y1.5091
G01 X9.0885 Y1.4063
G01 X9.0864 Y1.3985
G01 X9.0842 Y1.3866
G01 X9.0829 Y1.3747
G01 X9.0825 Y1.3626
G01 X9.0849 Y1.3014
G01 X9.0868 Y1.2854
G01 X9.0904 Y1.2697
G01 X9.0942 Y1.2583
G01 X9.1332 Y1.1548
G01 X9.1390 Y1.1421
G01 X9.1478 Y1.1272
G01 X9.1583 Y1.1133
G01 X9.1679 Y1.1032
G01 X9.2375 Y1.0387
G01 X9.2437 Y1.0336
G01 X9.2535 Y1.0265
G01 X9.2603 Y1.0222
G01 X9.2709 Y1.0165
G01 X9.3255 Y0.9918
G01 X9.3419 Y0.9859
G01 X9.3520 Y0.9833
G01 X9.3622 Y0.9815
G01 X9.3726 Y0.9803
G01 X9.3865 Y0.9798
G01 X9.4762 Y0.9833
G01 X9.4934 Y0.9854
G01 X9.5103 Y0.9894
G01 X9.5234 Y0.9941
G01 X9.5391 Y1.0015
G01 X9.5886 Y1.0287
G01 X9.5987 Y1.0352
G01 X9.6083 Y1.0425
G01 X9.6144 Y1.0478
G01 X9.6230 Y1.0563
G01 X9.6847 Y1.1230
G01 X9.6954 Y1.1367
G01 X9.7045 Y1.1515
G01 X9.7105 Y1.1641
G01 X9.7153 Y1.1771
G01 X9.7463 Y1.2833
G01 X9.7483 Y1.2911
G01 X9.7506 Y1.3029
G01 X9.7519 Y1.3149
G01 X9.7522 Y1.3270
G01 X9.7499 Y1.3882
G01 X9.7480 Y1.4042
G01 X9.7444 Y1.4199
G01 X9.7406 Y1.4313
G01 X9.7016 Y1.5348
G01 X9.6958 Y1.5475
G01 X9.6869 Y1.5624
G01 X9.6764 Y1.5763
G01 X9.6644 Y1.5888
G01 X9.5972 Y1.6509
G01 X9.5879 Y1.6585
G01 X9.5779 Y1.6653
G01 X9.5638 Y1.6731
G01 X9.5060 Y1.6991
G01 X9.4962 Y1.7026
G01 X9.4862 Y1.7055
G01 X9.4760 Y1.7076
G01 X9.4656 Y1.7090
G01 X9.4552 Y1.7097
G01 X9.4448 Y1.7096
G01 X9.3620 Y1.7065
G01 X9.3516 Y1.7057
G01 X9.3379 Y1.7036
G01 X9.3244 Y1.7002
G01 X9.3113 Y1.6955
G01 X9.3018 Y1.6913
G00 Z2.0000
G00 X10.0781 Y1.3702
G01 F60.00
G01 Z-0.1500
G01 F120.00
G01 X10.0904 Y1.3808
G01 X10.1005 Y1.3916
G01 X10.1096 Y1.4034
G01 X10.1174 Y1.4160
G01 X10.1240 Y1.4293
G01 X10.1292 Y1.4433
G01 X10.1330 Y1.4576
G01 X10.1354 Y1.4723
G01 X10.1362 Y1.4834
G01 X10.1362 Y1.4945
G01 X10.1251 Y1.7822
G01 X10.1252 Y1.7908
G01 X10.1267 Y1.8005
G01 X10.1301 Y1.8097
G01 X10.1353 Y1.8180
G01 X10.1419 Y1.8252
G01 X10.1498 Y1.8309
G01 X10.1587 Y1.8350
G01 X10.1682 Y1.8373
G01 X10.1780 Y1.8377
G01 X10.1877 Y1.8361
G01 X10.1923 Y1.8346
G01 X10.2011 Y1.8304
G01 X10.2089 Y1.8245
G01 X10.2124 Y1.8210
G01 X10.2154 Y1.8171
G01 X10.2204 Y1.8087
G01 X10.2236 Y1.7994
G01 X10.2245 Y1.7946
G01 X10.2252 Y1.7861
G01 X10.2471 Y1.2237
G01 X10.2494 Y1.2078
G01 X10.2522 Y1.1961
G01 X10.2547 Y1.1884
G01 X10.2826 Y1.1143
G01 X10.2871 Y1.1042
G01 X10.2923 Y1.0945
G01 X10.2983 Y1.0852
G01 X10.3026 Y1.0792
G01 X10.3072 Y1.0735
G01 X10.3147 Y1.0654
G01 X10.3227 Y1.0578
G01 X10.3284 Y1.0531
G01 X10.3373 Y1.0465
G01 X10.3435 Y1.0425
G01 X10.3531 Y1.0371
G01 X10.3597 Y1.0339
G01 X10.3680 Y1.0304
G01 X10.3778 Y1.0269
G01 X10.3946 Y1.0226
G01 X10.4118 Y1.0202
G01 X10.4292 Y1.0199
G01 X10.5154 Y1.0232
G01 X10.5258 Y1.0242
G01 X10.5395 Y1.0267
G01 X10.5562 Y1.0315
G01 X10.5722 Y1.0382
G01 X10.6313 Y1.0707
G01 X10.6444 Y1.0799
G01 X10.6507 Y1.0850
G01 X10.6594 Y1.0933
G01 X10.7590 Y1.2011
G01 X10.7679 Y1.2128
G01 X10.7738 Y1.2221
G01 X10.7773 Y1.2286
G01 X10.7835 Y1.2420
G01 X10.7860 Y1.2489
G01 X10.7892 Y1.2595
G01 X10.7916 Y1.2702
G01 X10.7928 Y1.2775
G01 X10.7938 Y1.2885
G01 X10.7941 Y1.2995
G01 X10.7746 Y1.8072
G01 X10.7747 Y1.8158
G01 X10.7762 Y1.8254
G01 X10.7777 Y1.8301
G01 X10.7820 Y1.8389
G01 X10.7879 Y1.8467
G01 X10.7952 Y1.8532
G01 X10.7993 Y1.8559
G01 X10.8082 Y1.8600
G01 X10.8129 Y1.8613
G01 X10.8226 Y1.8627
G01 X10.8324 Y1.8621
G01 X10.8419 Y1.8596
G01 X10.8464 Y1.8577
G01 X10.8547 Y1.8526
G01 X10.8619 Y1.8459
G01 X10.8676 Y1.8380
G01 X10.8717 Y1.8291
G01 X10.8731 Y1.8244
G01 X10.8740 Y1.8196
G01 X10.8747 Y1.8110
G01 X10.8790 Y1.6997
G01 X10.8798 Y1.6888
G01 X10.8815 Y1.6779
G01 X10.8849 Y1.6637
G01 X10.8896 Y1.6498
G01 X10.8949 Y1.6381
G01 X10.8895 Y1.6225
G01 X10.8861 Y1.6082
G01 X10.8842 Y1.5937
G01 X10.8837 Y1.5791
G01 X10.8971 Y1.2281
G01 X10.8984 Y1.2134
G01 X10.9004 Y1.2024
G01 X10.9021 Y1.1952
G01 X10.9066 Y1.1811
G01 X10.9132 Y1.1661
G01 X10.9086 Y1.1534
G01 X10.9058 Y1.1429
G01 X10.9037 Y1.1321
G01 X10.9021 Y1.1176
G01 X10.9019 Y1.1030
G01 X10.9062 Y0.9917
G01 X10.9061 Y0.9832
G01 X10.9056 Y0.9783
G01 X10.9046 Y0.9735
G01 X10.9012 Y0.9643
G01 X10.8961 Y0.9560
G01 X10.8894 Y0.9488
G01 X10.8856 Y0.9457
G01 X10.8772 Y0.9408
G01 X10.8679 Y0.9376
G01 X10.8631 Y0.9367
G01 X10.8533 Y0.9363
G01 X10.8484 Y0.9368
G01 X10.8390 Y0.9393
G01 X10.8302 Y0.9436
G01 X10.8261 Y0.9464
G01 X10.8117 Y0.9579
G01 X10.8023 Y0.9641
G01 X10.7892 Y0.9713
G01 X10.7753 Y0.9771
G01 X10.7610 Y0.9815
G01 X10.7463 Y0.9844
G01 X10.7314 Y0.9859
G01 X10.7201 Y0.9860
G01 X10.7127 Y0.9856
G01 X10.7015 Y0.9844
G01 X10.6868 Y0.9813
G01 X10.6760 Y0.9781
G01 X10.6655 Y0.9741
G01 X10.6520 Y0.9676
G01 X10.5882 Y0.9325
G01 X10.5809 Y0.9290
G01 X10.5721 Y0.9261
G01 X10.5676 Y0.9253
G01 X10.5595 Y0.9246
G01 X10.3893 Y0.9181
G01 X10.3812 Y0.9181
G01 X10.3721 Y0.9195
G01 X10.3676 Y0.9208
G01 X10.3601 Y0.9238
G01 X10.2462 Y0.9753
G01 X10.2386 Y0.9793
G01 X10.2306 Y0.9850
G01 X10.2240 Y0.9921
G01 X10.2188 Y1.0004
G01 X10.2154 Y1.0083
G01 X10.1522 Y1.1759
G01 X10.1494 Y1.1849
G01 X10.1484 Y1.1901
G01 X10.1475 Y1.1995
G01 X10.1455 Y1.2506
G01 X10.1442 Y1.2654
G01 X10.1423 Y1.2764
G01 X10.1405 Y1.2836
G01 X10.1373 Y1.2943
G01 X10.1332 Y1.3047
G01 X10.1284 Y1.3147
G01 X10.1228 Y1.3244
G01 X10.1166 Y1.3336
G01 X10.1097 Y1.3423
G01 X10.1021 Y1.3505
G01 X10.0940 Y1.3581
G01 X10.0853 Y1.3651
G01 X10.0781 Y1.3702
G00 Z2.0000
G00 X11.1856 Y1.1766
G01 F60.00
G01 Z-0.1500
G01 F120.00
G01 X11.1929 Y1.1968
G01 X11.1949 Y1.2013
G01 X11.2003 Y1.2095
G01 X11.2071 Y1.2165
G01 X11.2152 Y1.2220
G01 X11.2196 Y1.2242
G01 X11.2338 Y1.2296
G01 X11.2469 Y1.2359
G01 X11.2562 Y1.2415
G01 X11.2662 Y1.2485
G01 X11.2684 Y1.2386
G01 X11.2704 Y1.2315
G01 X11.2728 Y1.2244
G01 X11.2770 Y1.2141
G01 X11.2820 Y1.2042
G01 X11.3086 Y1.1560
G01 X11.3145 Y1.1467
G01 X11.3234 Y1.1349
G01 X11.3334 Y1.1241
G01 X11.3416 Y1.1167
G01 X11.3533 Y1.1078
G01 X11.3626 Y1.1019
G01 X11.3757 Y1.0951
G01 X11.3859 Y1.0908
G01 X11.3964 Y1.0873
G01 X11.4689 Y1.0663
G01 X11.4807 Y1.0637
G01 X11.4926 Y1.0621
G01 X11.5047 Y1.0614
G01 X11.5127 Y1.0615
G01 X11.6250 Y1.0658
G01 X11.6410 Y1.0673
G01 X11.6528 Y1.0695
G01 X11.6645 Y1.0727
G01 X11.6721 Y1.0753
G01 X11.7142 Y1.0912
G01 X11.7277 Y1.0970
G01 X11.7374 Y1.1023
G01 X11.7467 Y1.1082
G01 X11.7556 Y1.1148
G01 X11.7666 Y1.1246
G01 X11.7765 Y1.1355
G01 X11.7854 Y1.1472
G01 X11.7894 Y1.1534
G01 X11.7948 Y1.1630
G01 X11.8009 Y1.1764
G01 X11.8056 Y1.1904
G01 X11.8089 Y1.2047
G01 X11.8109 Y1.2193
G01 X11.8113 Y1.2340
G01 X11.8108 Y1.2451
G01 X11.8099 Y1.2524
G01 X11.8072 Y1.2668
G01 X11.8030 Y1.2810
G01 X11.7975 Y1.2946
G01 X11.7925 Y1.3044
G01 X11.7887 Y1.3108
G01 X11.7804 Y1.3229
G01 X11.7708 Y1.3341
G01 X11.7602 Y1.3444
G01 X11.7517 Y1.3513
G01 X11.7457 Y1.3556
G01 X11.7395 Y1.3596
G01 X11.7299 Y1.3650
G01 X11.7001 Y1.3785
G01 X11.6907 Y1.3819
G01 X11.6811 Y1.3847
G01 X11.6681 Y1.3874
G01 X11.4299 Y1.4254
G01 X11.4188 Y1.4262
G01 X11.4039 Y1.4260
G01 X11.3892 Y1.4243
G01 X11.3746 Y1.4211
G01 X11.3605 Y1.4166
G01 X11.3469 Y1.4106
G01 X11.3339 Y1.4033
G01 X11.3224 Y1.3954
G01 X11.3191 Y1.4094
G01 X11.3144 Y1.4231
G01 X11.3083 Y1.4363
G01 X11.3030 Y1.4458
G01 X11.2949 Y1.4578
G01 X11.2904 Y1.4635
G01 X11.2831 Y1.4716
G01 X11.2780 Y1.4767
G01 X11.2698 Y1.4839
G01 X11.2524 Y1.4966
G01 X11.2460 Y1.5032
G01 X11.2432 Y1.5068
G01 X11.2391 Y1.5137
G01 X11.1790 Y1.6231
G01 X11.1751 Y1.6312
G01 X11.1721 Y1.6391
G01 X11.1677 Y1.6486
G01 X11.1713 Y1.6584
G01 X11.1737 Y1.6664
G01 X11.1770 Y1.6748
G01 X11.2284 Y1.7883
G01 X11.2323 Y1.7959
G01 X11.2350 Y1.8000
G01 X11.2414 Y1.8074
G01 X11.2492 Y1.8134
G01 X11.2535 Y1.8157
G01 X11.2614 Y1.8192
G01 X11.4290 Y1.8823
G01 X11.4380 Y1.8851
G01 X11.4432 Y1.8862
G01 X11.4525 Y1.8870
G01 X11.6216 Y1.8935
G01 X11.6310 Y1.8934
G01 X11.6363 Y1.8927
G01 X11.6454 Y1.8906
G01 X11.8175 Y1.8405
G01 X11.8256 Y1.8377
G01 X11.8300 Y1.8357
G01 X11.8343 Y1.8332
G01 X11.8419 Y1.8271
G01 X11.8482 Y1.8196
G01 X11.8527 Y1.8123
G01 X11.9127 Y1.7029
G01 X11.9165 Y1.6952
G01 X11.9194 Y1.6859
G01 X11.9205 Y1.6761
G01 X11.9203 Y1.6712
G01 X11.9196 Y1.6664
G01 X11.9169 Y1.6570
G01 X11.9124 Y1.6483
G01 X11.9095 Y1.6443
G01 X11.9027 Y1.6373
G01 X11.8889 Y1.6278
G01 X11.8803 Y1.6211
G01 X11.8748 Y1.6163
G01 X11.8670 Y1.6086
G01 X11.8598 Y1.6003
G01 X11.8533 Y1.5916
G01 X11.8474 Y1.5824
G01 X11.8422 Y1.5727
G01 X11.8377 Y1.5628
G01 X11.8339 Y1.5525
G01 X11.8309 Y1.5420
G01 X11.8287 Y1.5312
G01 X11.8272 Y1.5204
G01 X11.8266 Y1.5058
G01 X11.8270 Y1.4949
G01 X11.8282 Y1.4840
