(G-CODE GENERATED BY FLATCAM v8.993 - www.flatcam.org - Version Date: 2020/06/05)

(Name: Gerber_Drill_PTH.DRL_mill_cnc)
(Type: G-code from Geometry)
(Units: MM)

(Created on Thursday, 06 May 2021 at 18:48)

(This preprocessor is the default preprocessor used by FlatCAM.)
(It is made to work with MACH3 compatible motion controllers.)

(TOOL DIAMETER: 0.8 mm)
(Feedrate_XY: 120.0 mm/min)
(Feedrate_Z: 50.0 mm/min)
(Feedrate rapids 1500.0 mm/min)

(Z_Cut: -2.0 mm)
(Z_Move: 2.0 mm)
(Z Start: None mm)
(Z End: 15.0 mm)
(Steps per circle: 64)
(Preprocessor Geometry: default)

(X range:    1.8530 ...   45.1480  mm)
(Y range:    8.0850 ...   38.8620  mm)

(Spindle Speed: None RPM)
G21
G90
G94



G01 F120.00
G00 Z2.0000

M03
G00 X1.8530 Y22.3520
G01 F50.00
G01 Z-2.0000
G01 F120.00
G01 X1.8530 Y22.3520
G01 X1.8530 Y22.3520
G01 X1.8530 Y22.3520
G01 X1.8530 Y22.3520
G00 Z2.0000
G00 X1.8530 Y24.8920
G01 F50.00
G01 Z-2.0000
G01 F120.00
G01 X1.8530 Y24.8920
G01 X1.8530 Y24.8920
G01 X1.8530 Y24.8920
G01 X1.8530 Y24.8920
G00 Z2.0000
G00 X17.5260 Y33.7820
G01 F50.00
G01 Z-2.0000
G01 F120.00
G01 X17.5260 Y33.7820
G01 X17.5260 Y33.7820
G01 X17.5260 Y33.7820
G01 X17.5260 Y33.7820
G00 Z2.0000
G00 X22.6060 Y33.7820
G01 F50.00
G01 Z-2.0000
G01 F120.00
G01 X22.6060 Y33.7820
G01 X22.6060 Y33.7820
G01 X22.6060 Y33.7820
G01 X22.6060 Y33.7820
G00 Z2.0000
G00 X21.4630 Y38.8620
G01 F50.00
G01 Z-2.0000
G01 F120.00
G01 X21.4630 Y38.8620
G01 X21.4630 Y38.8620
G01 X21.4630 Y38.8620
G01 X21.4630 Y38.8620
G00 Z2.0000
G00 X18.9230 Y38.8620
G01 F50.00
G01 Z-2.0000
G01 F120.00
G01 X18.9230 Y38.8620
G01 X18.9230 Y38.8620
G01 X18.9230 Y38.8620
G01 X18.9230 Y38.8620
G00 Z2.0000
G00 X30.0350 Y37.0840
G01 F50.00
G01 Z-2.0000
G01 F120.00
G01 X30.0350 Y37.0840
G01 X30.0350 Y37.0840
G01 X30.0350 Y37.0840
G01 X30.0350 Y37.0840
G00 Z2.0000
G00 X32.5750 Y37.0840
G01 F50.00
G01 Z-2.0000
G01 F120.00
G01 X32.5750 Y37.0840
G01 X32.5750 Y37.0840
G01 X32.5750 Y37.0840
G01 X32.5750 Y37.0840
G00 Z2.0000
G00 X35.1150 Y37.0840
G01 F50.00
G01 Z-2.0000
G01 F120.00
G01 X35.1150 Y37.0840
G01 X35.1150 Y37.0840
G01 X35.1150 Y37.0840
G01 X35.1150 Y37.0840
G00 Z2.0000
G00 X37.6550 Y37.0840
G01 F50.00
G01 Z-2.0000
G01 F120.00
G01 X37.6550 Y37.0840
G01 X37.6550 Y37.0840
G01 X37.6550 Y37.0840
G01 X37.6550 Y37.0840
G00 Z2.0000
G00 X40.1950 Y37.0840
G01 F50.00
G01 Z-2.0000
G01 F120.00
G01 X40.1950 Y37.0840
G01 X40.1950 Y37.0840
G01 X40.1950 Y37.0840
G01 X40.1950 Y37.0840
G00 Z2.0000
G00 X40.5760 Y31.7500
G01 F50.00
G01 Z-2.0000
G01 F120.00
G01 X40.5760 Y31.7500
G01 X40.5760 Y31.7500
G01 X40.5760 Y31.7500
G01 X40.5760 Y31.7500
G00 Z2.0000
G00 X37.3760 Y29.9470
G01 F50.00
G01 Z-2.0000
G01 F120.00
G01 X37.3760 Y29.9470
G01 X37.3760 Y29.9470
G01 X37.3760 Y29.9470
G01 X37.3760 Y29.9470
G00 Z2.0000
G00 X35.3950 Y29.9470
G01 F50.00
G01 Z-2.0000
G01 F120.00
G01 X35.3950 Y29.9470
G01 X35.3950 Y29.9470
G01 X35.3950 Y29.9470
G01 X35.3950 Y29.9470
G00 Z2.0000
G00 X33.3880 Y29.9470
G01 F50.00
G01 Z-2.0000
G01 F120.00
G01 X33.3880 Y29.9470
G01 X33.3880 Y29.9470
G01 X33.3880 Y29.9470
G01 X33.3880 Y29.9470
G00 Z2.0000
G00 X31.3820 Y29.9470
G01 F50.00
G01 Z-2.0000
G01 F120.00
G01 X31.3820 Y29.9470
G01 X31.3820 Y29.9470
G01 X31.3820 Y29.9470
G01 X31.3820 Y29.9470
G00 Z2.0000
G00 X32.5750 Y33.7820
G01 F50.00
G01 Z-2.0000
G01 F120.00
G01 X32.5750 Y33.7820
G01 X32.5750 Y33.7820
G01 X32.5750 Y33.7820
G01 X32.5750 Y33.7820
G00 Z2.0000
G00 X45.1480 Y31.7500
G01 F50.00
G01 Z-2.0000
G01 F120.00
G01 X45.1480 Y31.7500
G01 X45.1480 Y31.7500
G01 X45.1480 Y31.7500
G01 X45.1480 Y31.7500
G00 Z2.0000
G00 X45.1480 Y29.2100
G01 F50.00
G01 Z-2.0000
G01 F120.00
G01 X45.1480 Y29.2100
G01 X45.1480 Y29.2100
G01 X45.1480 Y29.2100
G01 X45.1480 Y29.2100
G00 Z2.0000
G00 X36.3850 Y17.1450
G01 F50.00
G01 Z-2.0000
G01 F120.00
G01 X36.3850 Y17.1450
G01 X36.3850 Y17.1450
G01 X36.3850 Y17.1450
G01 X36.3850 Y17.1450
G00 Z2.0000
G00 X34.3790 Y17.1450
G01 F50.00
G01 Z-2.0000
G01 F120.00
G01 X34.3790 Y17.1450
G01 X34.3790 Y17.1450
G01 X34.3790 Y17.1450
G01 X34.3790 Y17.1450
G00 Z2.0000
G00 X32.3980 Y17.1450
G01 F50.00
G01 Z-2.0000
G01 F120.00
G01 X32.3980 Y17.1450
G01 X32.3980 Y17.1450
G01 X32.3980 Y17.1450
G01 X32.3980 Y17.1450
G00 Z2.0000
G00 X30.3910 Y17.1450
G01 F50.00
G01 Z-2.0000
G01 F120.00
G01 X30.3910 Y17.1450
G01 X30.3910 Y17.1450
G01 X30.3910 Y17.1450
G01 X30.3910 Y17.1450
G00 Z2.0000
G00 X37.8470 Y11.5360
G01 F50.00
G01 Z-2.0000
G01 F120.00
G01 X37.8470 Y11.5360
G01 X37.8470 Y11.5360
G01 X37.8470 Y11.5360
G01 X37.8470 Y11.5360
G00 Z2.0000
G00 X34.3970 Y8.0850
G01 F50.00
G01 Z-2.0000
G01 F120.00
G01 X34.3970 Y8.0850
G01 X34.3970 Y8.0850
G01 X34.3970 Y8.0850
G01 X34.3970 Y8.0850
G00 Z2.0000
M05
G00 Z2.0000
G00 Z15.00

