(G-CODE GENERATED BY FLATCAM v8.993 - www.flatcam.org - Version Date: 2020/06/05)

(Name: Inner_cut_1.2500_iso_cnc)
(Type: G-code from Geometry)
(Units: MM)

(Created on Thursday, 06 May 2021 at 19:20)

(This preprocessor is the default preprocessor used by FlatCAM.)
(It is made to work with MACH3 compatible motion controllers.)

(TOOL DIAMETER: 1.5 mm)
(Feedrate_XY: 80.0 mm/min)
(Feedrate_Z: 60.0 mm/min)
(Feedrate rapids 1500.0 mm/min)

(Z_Cut: -2.0 mm)
(DepthPerCut: 0.7 mm <=>3 passes)
(Z_Move: 2.0 mm)
(Z Start: None mm)
(Z End: 15.0 mm)
(Steps per circle: 64)
(Preprocessor Geometry: default)

(X range:    7.0386 ...   42.8724  mm)
(Y range:   19.4211 ...   27.6959  mm)

(Spindle Speed: None RPM)
G21
G90
G94



G01 F80.00
G00 Z2.0000

M03
G00 X42.8724 Y27.6959
G01 F60.00
G01 Z-0.7000
G01 F80.00
G01 X42.8724 Y19.4211
G01 X7.0386 Y19.4211
G01 X7.0386 Y27.6959
G01 X42.8724 Y27.6959
G00 X42.8724 Y27.6959
G01 F60.00
G01 Z-1.4000
G01 F80.00
G01 X42.8724 Y19.4211
G01 X7.0386 Y19.4211
G01 X7.0386 Y27.6959
G01 X42.8724 Y27.6959
G00 X42.8724 Y27.6959
G01 F60.00
G01 Z-2.0000
G01 F80.00
G01 X42.8724 Y19.4211
G01 X7.0386 Y19.4211
G01 X7.0386 Y27.6959
G01 X42.8724 Y27.6959
G00 Z2.0000
M05
G00 Z2.0000
G00 Z15.00

